data/zilla-slab.svg

<svg width="54.81" height="16.8" viewBox="0 0 54.81 16.8" xmlns="http://www.w3.org/2000/svg"><path transform="translate(0 13.216) scale(.014 -.014)" d="m514 0h-480l-2 44 384 539v3h-280l-28-133-62 9 25 188h448l2-40-386-543v-3h314l28 138 63-9z"/><path transform="translate(8.078 13.216) scale(.014 -.014)" d="M105 560V651H181V560ZM260 0H34V57H112V388H32V445H182V57H260Z"/><path transform="translate(11.998 13.216) scale(.014 -.014)" d="M246 0H20V57H98V631H19V688H168V57H246Z"/><path transform="translate(15.722 13.216) scale(.014 -.014)" d="M246 0H20V57H98V631H19V688H168V57H246Z"/><path transform="translate(19.446 13.216) scale(.014 -.014)" d="m81 411q35 23 74 33t83 10q159 0 159-149v-212q0-48 38-48 17 0 30 6l1-46q-27-15-58-15-79 0-81 90v2q-21-36-59.5-64t-92.5-28q-44 0-89.5 27t-45.5 98q0 84 66.5 110.5t141.5 26.5q20 0 40.5-1t38.5-3v40q0 48-20.5 78t-80.5 30q-49 0-86-18l-17-77-58 7zm246-244v34q-19 1-40 3t-43 2q-50 0-90.5-15.5t-40.5-67.5q0-43 27-59t56-16q46 0 86.5 32t44.5 87z"/><path transform="translate(29.386 13.216) scale(.014 -.014)" d="m490 182q0-94-66.5-143t-165.5-49q-136 0-209 53l14 128 60-6-4-82q33-17 66-23t69-6q64 0 110.5 27.5t46.5 93.5q0 74-51 96.5t-111 36.5q-46 10-91 25.5t-75 49-30 97.5q0 92 61.5 136t145.5 44q54 0 109-15t86-39l6-129-60-6-10 97q-31 16-63 21.5t-61 5.5q-61 0-98.5-27.5t-37.5-79.5q0-61 45-82t100-34q44-10 93.5-25.5t85-53 35.5-111.5z"/><path transform="translate(36.848 13.216) scale(.014 -.014)" d="M246 0H20V57H98V631H19V688H168V57H246Z"/><path transform="translate(40.572 13.216) scale(.014 -.014)" d="m81 411q35 23 74 33t83 10q159 0 159-149v-212q0-48 38-48 17 0 30 6l1-46q-27-15-58-15-79 0-81 90v2q-21-36-59.5-64t-92.5-28q-44 0-89.5 27t-45.5 98q0 84 66.5 110.5t141.5 26.5q20 0 40.5-1t38.5-3v40q0 48-20.5 78t-80.5 30q-49 0-86-18l-17-77-58 7zm246-244v34q-19 1-40 3t-43 2q-50 0-90.5-15.5t-40.5-67.5q0-43 27-59t56-16q46 0 86.5 32t44.5 87z"/><path transform="translate(47.334 13.216) scale(.014 -.014)" d="m496 234q0-59-20-115t-64-92.5-114-36.5q-112 0-156 84l-10-74h-70q4 29 9 63t5 67v501h-77v57h147v-335q20 41 57.5 71t101.5 30q83 0 137-57t54-163zm-74-7q0 83-39 125t-95 42q-64 0-102-47t-40-96v-67q0-56 39.5-95t97.5-39q73 0 106 54t33 123z"/></svg>

<?xml version="1.0" encoding="utf-8" ?>
<svg baseProfile="tiny" height="100%" version="1.2" width="100%" xmlns="http://www.w3.org/2000/svg" xmlns:ev="http://www.w3.org/2001/xml-events" xmlns:xlink="http://www.w3.org/1999/xlink"><defs /><g><path d="M514 0H34L32 44L416 583V586H136L108 453L46 462L71 650H519L521 610L135 67V64H449L477 202L540 193Z" transform="translate(0.0, 72) scale(0.072, -0.072)" /><path d="M105 560V651H181V560ZM260 0H34V57H112V388H32V445H182V57H260Z" transform="translate(41.544, 72) scale(0.072, -0.072)" /><path d="M246 0H20V57H98V631H19V688H168V57H246Z" transform="translate(61.70399999999999, 72) scale(0.072, -0.072)" /><path d="M246 0H20V57H98V631H19V688H168V57H246Z" transform="translate(80.856, 72) scale(0.072, -0.072)" /><path d="M81 411Q116 434 155.0 444.0Q194 454 238 454Q397 454 397 305V93Q397 45 435 45Q452 45 465 51L466 5Q439 -10 408 -10Q329 -10 327 80V82Q306 46 267.5 18.0Q229 -10 175 -10Q131 -10 85.5 17.0Q40 44 40 115Q40 199 106.5 225.5Q173 252 248 252Q268 252 288.5 251.0Q309 250 327 248V288Q327 336 306.5 366.0Q286 396 226 396Q177 396 140 378L123 301L65 308ZM327 167V201Q308 202 287.0 204.0Q266 206 244 206Q194 206 153.5 190.5Q113 175 113 123Q113 80 140.0 64.0Q167 48 196 48Q242 48 282.5 80.0Q323 112 327 167Z" transform="translate(100.008, 72) scale(0.072, -0.072)" /><path d="M490 182Q490 88 423.5 39.0Q357 -10 258 -10Q122 -10 49 43L63 171L123 165L119 83Q152 66 185.0 60.0Q218 54 254 54Q318 54 364.5 81.5Q411 109 411 175Q411 249 360.0 271.5Q309 294 249 308Q203 318 158.0 333.5Q113 349 83.0 382.5Q53 416 53 480Q53 572 114.5 616.0Q176 660 260 660Q314 660 369.0 645.0Q424 630 455 606L461 477L401 471L391 568Q360 584 328.0 589.5Q296 595 267 595Q206 595 168.5 567.5Q131 540 131 488Q131 427 176.0 406.0Q221 385 276 372Q320 362 369.5 346.5Q419 331 454.5 293.5Q490 256 490 182Z" transform="translate(151.128, 72) scale(0.072, -0.072)" /><path d="M246 0H20V57H98V631H19V688H168V57H246Z" transform="translate(189.504, 72) scale(0.072, -0.072)" /><path d="M81 411Q116 434 155.0 444.0Q194 454 238 454Q397 454 397 305V93Q397 45 435 45Q452 45 465 51L466 5Q439 -10 408 -10Q329 -10 327 80V82Q306 46 267.5 18.0Q229 -10 175 -10Q131 -10 85.5 17.0Q40 44 40 115Q40 199 106.5 225.5Q173 252 248 252Q268 252 288.5 251.0Q309 250 327 248V288Q327 336 306.5 366.0Q286 396 226 396Q177 396 140 378L123 301L65 308ZM327 167V201Q308 202 287.0 204.0Q266 206 244 206Q194 206 153.5 190.5Q113 175 113 123Q113 80 140.0 64.0Q167 48 196 48Q242 48 282.5 80.0Q323 112 327 167Z" transform="translate(208.65599999999998, 72) scale(0.072, -0.072)" /><path d="M496 234Q496 175 476.0 119.0Q456 63 412.0 26.5Q368 -10 298 -10Q186 -10 142 74L132 0H62Q66 29 71.0 63.0Q76 97 76 130V631H-1V688H146V353Q166 394 203.5 424.0Q241 454 305 454Q388 454 442.0 397.0Q496 340 496 234ZM422 227Q422 310 383.0 352.0Q344 394 288 394Q224 394 186.0 347.0Q148 300 146 251V184Q146 128 185.5 89.0Q225 50 283 50Q356 50 389.0 104.0Q422 158 422 227Z" transform="translate(243.43199999999996, 72) scale(0.072, -0.072)" /></g></svg>
